X: 36585
T: Shady, The
R: polka
M: 2/4
K: Amixolydian
|:ef/e/ dB|cA AF|G>F GA|BA B/c/d|
ef/e/ dB|cA AF|G>F GA|BA A2:|
|:G>F GA|BA GE|G>F GA|BA B/c/d|
cA Ad|cA Ad|cd ef|1 g/f/e dB:|2 g/f/e a2||

